X:1
T:Title
%%score { ( 1 3 ) | ( 2 4 ) }
L:1/8
M:6/8
K:C
V:1 treble nm="Grand Piano"
V:3 treble 
V:2 bass 
V:4 bass 
V:1
 z3 z2[Q:1/4=81] [EG] | [EG][_E^F][=EG] [Ec][EB][EA] | [FB] [FB]2- [FB]2 [FA] | [FG]GG FGF | E6 | %5
 [CA][EA][EA] [^GB][GB]E | c c2- c3 | [^Fe][Fd][Fc] [FA][FB][Fc] | [B,Fd]6 | %9
 [EG][EA][EB] [Ed]2 [Ec] | [Fc]<[FB][F_B] [F=B]3 | GAB e2 d | c2- [Fc-] [Ec]3 | %13
 A^GA c[B,=GB][CFA] | [CEG][G,CE][G,DF] [CEG]2 [CE^G] |[M:13/16] z/ z/ z/ z/ z [Gf]/-[Gf]-<[Gf] z | %16
[M:5/8] c-c- c3[Q:1/4=80][Q:1/4=78][Q:1/4=77][Q:1/4=76][Q:1/4=75][Q:1/4=73][Q:1/4=72][Q:1/4=71][Q:1/4=70][Q:1/4=68][Q:1/4=67][Q:1/4=66][Q:1/4=65][Q:1/4=63][Q:1/4=62] |] %17
V:2
 z3 z2 [C,C] | [C,C][C,A,][C,G,] [C,G,][C,G,][C,G,] | [D,G,] [D,G,]2- [D,G,]2 [D,A,] | %3
 [D,B,][K:treble][G,B,F][G,CE] [G,B,D][G,B,E][G,B,D] | [C,C]3 [B,,^G,]2 [B,,G,] | %5
 [A,,A,][A,C][A,C] [E,D][E,D][^G,D] | [A,CE] [A,CE]2- [A,CE]3 | %7
 [D,C][D,B,][D,A,] [D,C][D,B,][D,A,] | [G,,G,]6 | [C,C][C,C][C,C] [C,G,]2 [C,G,] | %10
 [D,G,]<[D,G,][^C,G,] [D,G,]3 | [G,B,F][G,CF][G,DF] [G,B,G]2 [G,F] | G,2 A, C3 | %13
 [F,CF][F,B,F][F,CF] [F,A,F]F,F, | C,C,C, D,2 C, |[M:13/16] F,F,E,B,/-B,-<B,[G,,G,] | %16
[M:5/8] G,_B,A, G,2 |] %17
V:3
 x6 | x6 | x6 | x6 | z3 D2 [DE] | x6 | x6 | x6 | x6 | x6 | x6 | x6 | .E3 z3 | x6 | x6 | %15
[M:13/16] [CFA][DGB][CGc] z G,,3/2[FB] |[M:5/8] EGF E2 |] %17
V:4
 x6 | x6 | x6 | x[K:treble] x5 | x6 | x6 | x6 | x6 | x6 | x6 | x6 | x6 | C,6 | x6 | x6 | %15
[M:13/16] z/ z/ z/ z/ z .D,3/2 z/ z/ z |[M:5/8] C,-C,- C,3 |] %17

